X:1
T:The Strathnairn
R:polka
M:2/4
L:1/8
K:Bm
|B>A Fd|Bc BA|FE/F/ AF|E3 F/A/|
|B>c BA|Fd cd|FA FD|B,3 B|
|B/c/B/A/ Fd|Bc BA|FE/F/ AF|E3 F/A/|
|B>c BA|Fd cd|FA FD|B,3 e|
|ef/e/ dB|Ad fd|gf/e/ de/f/|e3 e|
|ef/e/ dB|Ad cd|FA FD|B,3 e|
|ef/e/ dB|Ad fa|b3 c'|ba f/e/d|
|ef/e/ dB|Ad cd|FA FD|B,3 B|